picto/tracks-20-fr-small.svg

<svg class="color-immutable" width="24" height="24" viewBox="0 0 24 24" fill="none" xmlns="http://www.w3.org/2000/svg"><path d="M0 22.5V1.5C0 0.675 0.675 0 1.5 0H22.5C23.325 0 24 0.675 24 1.5V22.5C24 23.325 23.325 24 22.5 24H1.5C0.675 24 0 23.325 0 22.5Z" fill="#2D327D"/><path d="M11.276 19.001V21.001H3.17799C3.17799 20.391 3.27699 19.809 3.47399 19.255C3.67099 18.701 3.94899 18.224 4.30799 17.825C4.58499 17.517 4.90899 17.217 5.28099 16.925C5.65299 16.633 6.39199 16.097 7.49999 15.318C8.03799 14.944 8.41499 14.595 8.62999 14.272C8.84499 13.949 8.95299 13.575 8.95299 13.149C8.95299 12.657 8.80799 12.258 8.51799 11.953C8.22799 11.648 7.84799 11.495 7.37599 11.495C6.21699 11.495 5.61999 12.328 5.58399 13.994H3.42399C3.42399 13.886 3.42399 13.804 3.42399 13.748C3.42399 12.384 3.80599 11.328 4.56999 10.58C5.31299 9.852 6.27499 9.488 7.45399 9.488C8.49999 9.488 9.37399 9.785 10.076 10.38C10.84 11.026 11.222 11.895 11.222 12.987C11.222 13.941 10.917 14.761 10.307 15.448C10.107 15.674 9.91999 15.854 9.74599 15.99C9.57199 16.126 9.11299 16.453 8.36899 16.971C7.66099 17.463 7.15499 17.84 6.84999 18.101C6.54499 18.362 6.26199 18.662 5.99999 19.001H11.276Z" fill="white"/><path d="M16.823 9.487C17.679 9.487 18.433 9.748 19.084 10.271C19.73 10.794 20.199 11.599 20.491 12.686C20.711 13.517 20.822 14.419 20.822 15.393C20.822 17.008 20.535 18.336 19.961 19.377C19.623 19.982 19.18 20.449 18.634 20.777C18.088 21.105 17.479 21.269 16.807 21.269C15.889 21.269 15.105 20.992 14.454 20.438C13.295 19.454 12.716 17.772 12.716 15.393C12.716 13.701 13.018 12.343 13.623 11.317C13.966 10.733 14.416 10.281 14.973 9.963C15.53 9.646 16.147 9.487 16.823 9.487ZM16.739 11.387C16.001 11.387 15.498 11.813 15.232 12.664C15.022 13.341 14.917 14.289 14.917 15.509C14.917 16.586 15.025 17.45 15.24 18.101C15.517 18.947 16.029 19.37 16.778 19.37C17.398 19.37 17.86 19.042 18.162 18.386C18.464 17.73 18.616 16.728 18.616 15.379C18.616 14.231 18.508 13.326 18.293 12.664C18.015 11.813 17.498 11.387 16.739 11.387Z" fill="white"/><path d="M5.036 3L4.288 5.249H3.73L2.993 3H3.507L4.013 4.684L4.527 3H5.036Z" fill="white"/><path d="M5.87399 3.523C6.11799 3.523 6.31699 3.604 6.47199 3.766C6.62499 3.926 6.70099 4.139 6.70099 4.406C6.70099 4.682 6.61899 4.902 6.45599 5.066C6.30399 5.218 6.10499 5.295 5.85999 5.295C5.59899 5.295 5.38999 5.21 5.23599 5.04C5.08799 4.877 5.01399 4.667 5.01399 4.409C5.01399 4.155 5.08599 3.948 5.22899 3.789C5.38899 3.612 5.60299 3.523 5.87399 3.523ZM5.85099 3.871C5.73299 3.871 5.63899 3.919 5.56999 4.014C5.49899 4.11 5.46299 4.242 5.46299 4.409C5.46299 4.582 5.49799 4.715 5.56799 4.807C5.63999 4.9 5.73799 4.947 5.86199 4.947C5.97799 4.947 6.06999 4.904 6.13699 4.819C6.21399 4.725 6.25199 4.588 6.25199 4.408C6.25199 4.24 6.21799 4.109 6.14999 4.016C6.07999 3.919 5.97999 3.871 5.85099 3.871Z" fill="white"/><path d="M7.44899 3V3.401H7.00299V3H7.44899ZM7.44899 3.572V5.249H7.00299V3.572H7.44899Z" fill="white"/><path d="M9.32099 4.726C9.29699 4.82 9.25499 4.909 9.19299 4.992C9.04499 5.194 8.83299 5.295 8.55599 5.295C8.30599 5.295 8.10499 5.216 7.95499 5.058C7.88099 4.981 7.82499 4.888 7.78599 4.78C7.74399 4.664 7.72299 4.543 7.72299 4.417C7.72299 4.173 7.79299 3.968 7.93399 3.802C8.09099 3.616 8.29399 3.524 8.54299 3.524C8.74399 3.524 8.91499 3.586 9.05699 3.71C9.15899 3.799 9.23199 3.909 9.27799 4.04C9.32399 4.171 9.34699 4.335 9.34699 4.533H8.17699C8.18099 4.615 8.19399 4.683 8.21499 4.738C8.27499 4.885 8.38999 4.958 8.55999 4.958C8.64299 4.958 8.71099 4.94 8.76299 4.903C8.81499 4.867 8.85799 4.808 8.89199 4.727H9.32099V4.726ZM8.89199 4.232C8.88399 4.151 8.86499 4.084 8.83599 4.031C8.80799 3.978 8.76699 3.937 8.71399 3.906C8.66099 3.875 8.60399 3.86 8.54099 3.86C8.44199 3.86 8.35999 3.893 8.29499 3.96C8.22999 4.026 8.19199 4.117 8.17999 4.232H8.89199Z" fill="white"/></svg>

<svg class="color-immutable" width="24" height="24" viewBox="0 0 24 24" fill="none" xmlns="http://www.w3.org/2000/svg"><g clip-path="url(#a)"><path d="M0 22.5v-21C0 .675.675 0 1.5 0h21c.825 0 1.5.675 1.5 1.5v21c0 .825-.675 1.5-1.5 1.5h-21C.675 24 0 23.325 0 22.5Z" fill="#2D327D"/><path d="M11.276 19.001v2H3.178c0-.61.099-1.192.296-1.746a4.228 4.228 0 0 1 .834-1.43c.277-.308.601-.608.973-.9.372-.292 1.111-.828 2.219-1.607.538-.374.915-.723 1.13-1.046.215-.323.323-.697.323-1.123 0-.492-.145-.891-.435-1.196-.29-.305-.67-.458-1.142-.458-1.159 0-1.756.833-1.792 2.499h-2.16v-.246c0-1.364.382-2.42 1.146-3.168.743-.728 1.705-1.092 2.884-1.092 1.046 0 1.92.297 2.622.892.764.646 1.146 1.515 1.146 2.607 0 .954-.305 1.774-.915 2.461a4.33 4.33 0 0 1-.561.542c-.174.136-.633.463-1.377.981-.708.492-1.214.869-1.519 1.13a6.037 6.037 0 0 0-.85.9h5.276ZM16.823 9.487c.856 0 1.61.261 2.261.784.646.523 1.115 1.328 1.407 2.415.22.831.331 1.733.331 2.707 0 1.615-.287 2.943-.861 3.984-.338.605-.781 1.072-1.327 1.4a3.48 3.48 0 0 1-1.827.492c-.918 0-1.702-.277-2.353-.831-1.159-.984-1.738-2.666-1.738-5.045 0-1.692.302-3.05.907-4.076a3.654 3.654 0 0 1 1.35-1.354 3.676 3.676 0 0 1 1.85-.476Zm-.084 1.9c-.738 0-1.241.426-1.507 1.277-.21.677-.315 1.625-.315 2.845 0 1.077.108 1.941.323 2.592.277.846.789 1.269 1.538 1.269.62 0 1.082-.328 1.384-.984.302-.656.454-1.658.454-3.007 0-1.148-.108-2.053-.323-2.715-.278-.851-.795-1.277-1.554-1.277ZM5.036 3l-.748 2.249H3.73L2.993 3h.514l.506 1.684L4.527 3h.509ZM5.874 3.523a.79.79 0 0 1 .598.243c.153.16.229.373.229.64 0 .276-.082.496-.245.66a.807.807 0 0 1-.596.229c-.261 0-.47-.085-.624-.255-.148-.163-.222-.373-.222-.631 0-.254.072-.461.215-.62.16-.177.374-.266.645-.266Zm-.023.348a.33.33 0 0 0-.281.143.652.652 0 0 0-.107.395c0 .173.035.306.105.398.072.093.17.14.294.14a.332.332 0 0 0 .275-.128c.077-.094.115-.231.115-.411 0-.168-.034-.299-.102-.392a.347.347 0 0 0-.299-.145ZM7.449 3v.401h-.446V3h.446Zm0 .572v1.677h-.446V3.572h.446ZM9.321 4.726a.752.752 0 0 1-.128.266c-.148.202-.36.303-.637.303-.25 0-.451-.079-.601-.237a.775.775 0 0 1-.169-.278 1.058 1.058 0 0 1-.063-.363c0-.244.07-.449.211-.615a.76.76 0 0 1 .609-.278.754.754 0 0 1 .735.516c.046.131.069.295.069.493h-1.17c.004.082.017.15.038.205.06.147.175.22.345.22a.343.343 0 0 0 .203-.055.39.39 0 0 0 .129-.176h.429v-.001Zm-.429-.494a.525.525 0 0 0-.056-.201.334.334 0 0 0-.295-.171.328.328 0 0 0-.246.1.44.44 0 0 0-.115.272h.712Z" fill="#fff"/></g><defs><clipPath id="a"><path fill="#fff" d="M0 0h24v24H0z"/></clipPath></defs></svg>
